X: 52
T:O'Connell's Trip to Parliament
M:C|
L:1/8
R:Reel
K:D
dcAF G2FG|Adde fdec|dcAF G2FG|AFGE FDD2|!
dcAF G2FG|Adde fdef|dcAF G2FG|AFGE FDD2|]!
f2fa gfed|cdef g2fe|defg a2gf|a2ge fdde|!
~f3a gfed|cdef g2fe|defg a2gf|a2ge fdd2|]!
